src/assets/duotone/HeartRemove.svg

<svg width="24" height="24" viewBox="0 0 24 24"  xmlns="http://www.w3.org/2000/svg">
<path opacity="0.4" d="M22 8.68961C22 9.87961 21.81 10.9796 21.48 11.9996C21.27 12.6696 21 13.3096 20.68 13.8996C19.8 12.9696 18.57 12.3996 17.2 12.3996C14.55 12.3996 12.4 14.5496 12.4 17.1996C12.4 18.4296 12.87 19.5496 13.63 20.3996C13.26 20.5696 12.92 20.7096 12.62 20.8096C12.28 20.9296 11.72 20.9296 11.38 20.8096C8.97001 19.9896 4.10002 16.9996 2.52002 11.9996C2.19002 10.9796 2 9.87961 2 8.68961C2 5.59961 4.49 3.09961 7.56 3.09961C9.37 3.09961 10.99 3.97959 12 5.32959C13.01 3.97959 14.63 3.09961 16.44 3.09961C19.51 3.09961 22 5.59961 22 8.68961Z" />
<path d="M20.6899 13.9204C20.6799 13.9204 20.6799 13.9104 20.6799 13.9104V13.9004C19.7999 12.9804 18.5699 12.4004 17.1999 12.4004C14.5499 12.4004 12.3999 14.5504 12.3999 17.2004C12.3999 18.4304 12.8699 19.5504 13.6299 20.4004C14.5099 21.3804 15.7799 22.0004 17.1999 22.0004C19.8499 22.0004 21.9999 19.8504 21.9999 17.2004C21.9999 15.9304 21.4999 14.7804 20.6899 13.9204ZM19.0099 19.0704C18.8699 19.2104 18.6699 19.2904 18.4799 19.2904C18.2899 19.2904 18.0999 19.2104 17.9499 19.0704L17.2099 18.3304L16.4499 19.1004C16.2999 19.2404 16.1099 19.3204 15.9199 19.3204C15.8199 19.3204 15.7299 19.3004 15.6399 19.2604C15.5499 19.2304 15.4599 19.1704 15.3899 19.1004C15.0899 18.8004 15.0899 18.3304 15.3899 18.0404L16.1499 17.2704L15.4199 16.5304C15.1199 16.2404 15.1199 15.7604 15.4199 15.4704C15.7099 15.1804 16.1799 15.1804 16.4799 15.4704L17.2099 16.2104L17.9199 15.5004C18.2199 15.2104 18.6899 15.2104 18.9799 15.5004C19.1499 15.6704 19.2199 15.8904 19.1899 16.1104C19.1799 16.2804 19.1099 16.4404 18.9799 16.5604L18.2699 17.2704L19.0099 18.0104C19.3099 18.3004 19.3099 18.7704 19.0099 19.0704Z" />
</svg>

<?xml version="1.0" encoding="UTF-8"?>
<svg width="24" height="24" viewBox="0 0 24 24" xmlns="http://www.w3.org/2000/svg">
 <path d="m22 8.6896c0 1.19-0.19 2.29-0.52 3.31-0.21 0.67-0.48 1.31-0.8 1.9-0.88-0.93-2.11-1.5-3.48-1.5-2.65 0-4.8 2.15-4.8 4.8 0 1.23 0.47 2.35 1.23 3.2-0.37 0.17-0.71 0.31-1.01 0.41-0.34 0.12-0.9 0.12-1.24 0-2.41-0.82-7.28-3.81-8.86-8.81-0.33-1.02-0.52002-2.12-0.52002-3.31 0-3.09 2.49-5.59 5.56-5.59 1.81 0 3.43 0.87998 4.44 2.23 1.01-1.35 2.63-2.23 4.44-2.23 3.07 0 5.56 2.5 5.56 5.59z" opacity=".4"/>
 <path d="m20.69 13.92c-0.01 0-0.01-0.01-0.01-0.01v-0.01c-0.88-0.92-2.11-1.5-3.48-1.5-2.65 0-4.8 2.15-4.8 4.8 0 1.23 0.47 2.35 1.23 3.2 0.88 0.98 2.15 1.6 3.57 1.6 2.65 0 4.8-2.15 4.8-4.8 0-1.27-0.5-2.42-1.31-3.28zm-1.68 5.15c-0.14 0.14-0.34 0.22-0.53 0.22s-0.38-0.08-0.53-0.22l-0.74-0.74-0.76 0.77c-0.15 0.14-0.34 0.22-0.53 0.22-0.1 0-0.19-0.02-0.28-0.06-0.09-0.03-0.18-0.09-0.25-0.16-0.3-0.3-0.3-0.77 0-1.06l0.76-0.77-0.73-0.74c-0.3-0.29-0.3-0.77 0-1.06 0.29-0.29 0.76-0.29 1.06 0l0.73 0.74 0.71-0.71c0.3-0.29 0.77-0.29 1.06 0 0.17 0.17 0.24 0.39 0.21 0.61-0.01 0.17-0.08 0.33-0.21 0.45l-0.71 0.71 0.74 0.74c0.3 0.29 0.3 0.76 0 1.06z"/>
</svg>
